X:1
T:Makedonsko oro
O:Makedonien
Z:ABC-transkribering av Erik Ronström 2010
M:4/4
L:1/8
K:Am
|:"Am"Pc>A BG ^FG AB|Pc>A BG A2 d2|Pc>A BG ^FG AB|Pc>A BG A>d A2:| 
|:"C"z2 g^f g2 a2|g2 =f2 e2 d2|cG cd "G7"ec dB|"C"c4 z4:|
|:"Dm"d8|"G"ec dB "C"c2 BG|"F"z G AB "G"cA BG|"Am"A8:|

